X:7946
T:B\aansull
C:anon.
O:Norway
R:B\aansull (Baansull), lullaby
F:http://abc.musicaviva.com/tunes/norway/baansull03/baansull03-1.abc
M:C
L:1/4
Q:1/4=160
K:Dm
"Dm"DF"Am"E2|"Dm"DF"Am"E2|
w:G\aa i fj\os, bl\aas opp lj\os,
"Dm"DD/F/"Am"EF|"Dm"DF"Am"E2|"Dm"DF"Am"EC|
w:ku-a ha kal-va svar-tan kalv. Ka skal kal-ven
"Dm"D2D2|"Dm"DF"Am"E2|"Dm"D2D2|]
w:hei-te? Ma-ri-koll fei-te.
W:
W:G\aa i fj\os, bl\aas opp lj\os,
W:kua ha kalva svartan kalv.
W:Ka skal kalven heite?
W:Marikoll feite.
W:
W:
W:  From Musica Viva - http://www.musicaviva.com
W:  the Internet center for free sheet music downloads.

